svg/u1f5bc.svg

<svg viewBox="0 0 128 128" xmlns="http://www.w3.org/2000/svg">
  <g>
    <g>
      <path d="M122.66,124H5.34C4.6,124,4,123.4,4,122.66V5.34C4,4.6,4.6,4,5.34,4h117.32 C123.4,4,124,4.6,124,5.34v117.32C124,123.4,123.4,124,122.66,124z" fill="#F2A600"/>
      <rect height="85.47" fill="#FFFFFF" width="85.47" x="21.26" y="21.26"/>
      <path d="M122.66,4H5.34C4.97,4,4.64,4.15,4.39,4.39l16.87,16.87h85.47l16.87-16.87 C123.36,4.15,123.03,4,122.66,4z" opacity="0.5" fill="#D1762C"/>
      <path d="M21.26,21.26L4.39,4.39C4.15,4.64,4,4.97,4,5.34v117.32c0,0.37,0.15,0.71,0.39,0.95l16.87-16.87 L21.26,21.26z" fill="#DE7340"/>
    </g>
    <g>
      <path d="M114.5,13.5v101h-101v-101H114.5z M120.5,7.5H7.5v113h113V7.5L120.5,7.5z" fill="#FFCD40"/>
      <polygon points="13.5,114.5 13.5,13.5 7.5,7.5 7.5,120.5 " fill="#A65F3E"/>
      <polygon points="114.43,13.5 120.43,7.5 7.5,7.5 13.5,13.5 " fill="#D1762C"/>
    </g>
    <g>
      <path d="M116.5,116.5h-105v-105h105V116.5z M13.5,114.5h101v-101h-101V114.5z" fill="#D1762C"/>
      <polygon points="13.5,114.5 13.5,13.5 11.5,11.5 11.5,116.5 " fill="#824A34"/>
      <polygon points="114.5,13.5 116.5,11.5 11.5,11.5 13.5,13.5 " fill="#A65F3E"/>
    </g>
    <g>
      <linearGradient id="SVGID_1_" gradientUnits="userSpaceOnUse" x1="58.2354" x2="66.5965" y1="84.5602" y2="54.7389">
        <stop offset="0.1167" stop-color="#AFE4FE"/>
        <stop offset="0.6082" stop-color="#84C9ED"/>
        <stop offset="1" stop-color="#5FB2DE"/>
      </linearGradient>
      <rect height="73" fill="url(#SVGID_1_)" width="73" x="27.5" y="27.5"/>
      <path d="M100.5,62.62c-2.2,0.63-4.13,2.13-5.3,4.1c-0.18,0.31-0.34,0.66-0.66,0.85 c-1.03,0.38-2.21,0.46-3.01,1.36c-0.34-2.12-2.91-3.3-4.88-2.64c-1.67,0.42-2.5,2.18-2.65,3.78c-1.76-0.52-3.7,0.83-3.82,2.66 c-0.02,0.17-0.02,0.36-0.11,0.5c-0.44,0.45-1.33,0.4-1.87,0.94c-1.07,0.84-1.57,2.29-2.71,3.03c6.44-3.63,14.23-3.12,21.25-4.88 c1.39-0.34,2.94-0.77,3.76-1.99V62.62z" fill="#1B5E20"/>
      <path d="M100.5,94.59c0,0-16.59,0.86-34.7-4.72C47.69,84.3,39.38,78.6,39.38,78.6s12.11,2.35,28.28-0.29 c10.59-1.73,18.44-7.72,32.82-8L100.5,94.59z" fill="#689F38"/>
      <path d="M57.5,79.7c0.14-0.19,0.31-0.37,0.37-0.6c0.07-0.28-0.04-0.57-0.12-0.84 c-0.22-0.79-0.15-1.66,0.18-2.42c0.17-0.4,0.42-0.76,0.54-1.18c0.21-0.72,0.01-1.49-0.03-2.24c-0.06-1.02,0.17-2.05,0.65-2.95 c0.07-0.13,0.15-0.26,0.29-0.33c0.38-0.17,0.7,0.36,0.74,0.77c0.12,1.04-0.1,2.11,0.12,3.14c0.31,1.44,1.47,2.69,1.39,4.17 c-0.03,0.53-0.22,1.06-0.12,1.57c0.08,0.39,0.33,0.73,0.54,1.07c0.54,0.88,0.87,1.87,0.97,2.9c0.12,1.23-0.25,2.7-1.4,3.13 c-1.25,0.48-2.53-0.54-3.51-1.21c-0.9-0.62-1.33-1.9-1.3-2.95C56.83,81.01,57.06,80.28,57.5,79.7z" fill="#2E7D32"/>
      <path d="M86.82,56.92c-3.97,0.29-7.94,0.58-11.92,0.87c-1.97,0.14-3.97,0.29-5.91-0.09 c-0.92-0.18-1.82-0.48-2.76-0.53c-1.71-0.09-3.34,0.64-5,1.06c-1.82,0.46-3.73,0.55-5.58,0.26c-1.29-0.2-2.61-0.62-3.55-1.53 c-0.47-0.45-0.83-1.02-1.33-1.45c-0.61-0.54-1.4-0.84-2.08-1.28c-2.88-1.84-3.56-6.35-1.35-8.96c0.36-0.42,0.78-0.8,1.1-1.26 c0.62-0.88,0.82-1.98,1.19-2.99c1.17-3.25,4.22-5.72,7.63-6.28c3.41-0.56,7.05,0.78,9.35,3.36c0.75,0.84,1.42,1.83,2.46,2.25 c0.61,0.24,1.29,0.26,1.94,0.34c3.71,0.47,6.82,3.32,8.4,6.71c0.7,1.51,1.19,3.18,2.36,4.35c0.48,0.48,1.06,0.86,1.64,1.22 c2.6,1.62,5.32,3.04,8.13,4.25c-0.72-0.05-1.43-0.09-2.15-0.14" fill="#FFFFFF"/>
      <path d="M74.9,57.79c-1.97,0.14-3.97,0.29-5.91-0.09c-0.92-0.18-1.82-0.48-2.76-0.53 c-1.71-0.09-3.34,0.64-5,1.06c-1.82,0.46-3.73,0.55-5.58,0.26c-1.29-0.2-2.61-0.62-3.55-1.53c-0.47-0.45-0.83-1.02-1.33-1.45 c-0.61-0.54-1.4-0.84-2.08-1.28c-1.04-0.67-1.63-1.6-2.17-2.68c-0.13-0.25-0.13-0.48-0.15-0.76c0.87,1.34,3.22,2.78,4.16,1.73 c0.31-0.92-0.79-2.52-1.16-3.79c-0.7-2.4-0.77-4.89,0.09-7.24c0.1-0.28,0.35-1.19,0.69-1.67c0.26,1.95,0.94,4.91,2.33,6.3 c1.39,1.39,3.71,1.98,5.38,0.94c1.05-0.66,1.67-1.81,2.43-2.79c2.24-2.87,6.15-4.34,9.73-3.65c-1.85,1.08-3.65,2.39-4.74,4.23 s-1.35,4.31-0.13,6.08c0.98,1.42,2.76,2.15,4.48,2.12c0.95-0.02,2.02-0.35,2.41-1.22c0.22-0.5,0.17-1.1,0.42-1.59 c0.47-0.94,1.85-1.06,2.78-0.58c0.94,0.49,1.58,1.38,2.3,2.14c2.7,2.84,6.69,3.98,10.47,5c-0.11-0.03-0.34,0.06-0.46,0.08 c-0.18,0.03-0.36,0.06-0.54,0.09c-0.28,0.05-0.56,0.12-0.85,0.08c-0.6-0.09-1.21,0.01-1.81,0.05c-1.41,0.1-2.83,0.21-4.24,0.31 C78.38,57.53,76.64,57.66,74.9,57.79z" fill="#C9E3E6"/>
      <path d="M100.5,86.03c-35.07,8.17-51.74-11.9-73-14.16v28.63h73V86.03z" fill="#8BC34A"/>
      <radialGradient id="SVGID_2_" cx="79.394" cy="86.8055" gradientTransform="matrix(0.9882 0.1498 -0.0762 0.5025 7.5429 31.2831)" gradientUnits="userSpaceOnUse" r="35.9625">
        <stop offset="0" stop-color="#D4E157"/>
        <stop offset="1" stop-color="#D4E157" stop-opacity="0"/>
      </radialGradient>
      <path d="M100.5,86.03c-35.07,8.17-51.74-11.9-73-14.16v28.63h73V86.03z" fill="url(#SVGID_2_)"/>
      <path d="M36.32,77.15c-1.04,0.31-1.9-0.49-2.77-0.91c-2.31-1.71-2.31-4.83-2.13-7.44 c-0.05-0.62,0.39-1.64,1.12-1.2c-0.3-1.5-0.33-3.05-0.11-4.56c0.15-1.17,0.56-1.98,1.51-2.58c0.06-0.12,0.02-0.26-0.01-0.39 c-0.44-1.72,0.36-3.5,0.44-5.28c0.07-1.39-0.3-2.83,0.18-4.13c0.2-0.58,0.93-0.9,1.06-0.17c0.7,2.74,1.91,5.47,1.68,8.35 c-0.08,0.39,0.07,0.71,0.39,0.94c2.04,1.82,1.13,4.99,1.46,7.46c0.96,2.27,0.94,4.81-0.2,7.02 C38.42,75.48,37.58,76.61,36.32,77.15z" fill="#2E7D32"/>
      <path d="M50.15,78.67c-4.42-1.06-4.6,0.11-6.06-0.23c-5.02-1.51-1.93-6.4-0.48-7.59 c-0.61-2.33,0.98-3.28,2.86-5.58c0.3-4.71,4.82-3.34,4.24,0.79c1.2,1.56,1.64,3.27,1.25,5.22c0.12,1.16,1.25,1.92,1.78,2.96 C54.77,76.27,53.04,79.36,50.15,78.67z" fill="#689F38"/>
      <path d="M48.47,71.01c-0.53,1.1-2.05,1.33-3.24,1.03c-0.55-0.14-1.13-0.44-1.66-0.24 c-1.24,0.46-1.63,1.46-1.67,2.46c0,1.34,1.34,2.39,2.68,2.45c1.34,0.06,2.6-0.64,3.61-1.5c0.3,1.8,3.09,1.75,4.31,0.72 c1.16-0.98,0.66-2.55,0.66-2.55c1.39,1.55,1.32,2.77,1.16,4.06c-0.15,1.24-1.22,2.62-0.58,3.58c-2.22,0.57-3.32-1.34-5.09-2.13 c-0.65-0.18-1.33,0.01-1.99,0.14c-2.72,0.71-5.77-0.89-5.79-3.9c-0.02-1.45,0.78-2.88,2-3.67c0.14-0.09,0.29-0.18,0.35-0.34 c0.06-0.17,0-0.35-0.06-0.52c-1.24-3.32,2-3.29,3.4-5.44c0.56,0.62,1.48,0.88,2.28,0.65c-0.63,1.46-2.4,0.76-3.52,1.35 C43.24,68.87,46.66,71.27,48.47,71.01z" fill="#2E7D32"/>
      <path d="M33.5,64.3c0.72,1.31,2.62,2.37,2.19,4.08c-0.65-0.43-1.44-0.98-2.23-0.95 c-0.66,0.88-0.4,2.42,0.12,3.33c2.42,3.24,5.03-1.65,5.23-3.94c2.94,3.44,0.25,12.98-5.07,9.66c-0.71-0.57-2.78-2.86-2.66-6.68 c0.07-2.32,1-2.47,1.54-2.4c-0.79-1.22-0.94-2.95-0.63-4.2c0.27-1.07,0.74-1.93,1.46-2.63c0.73-0.72,0.2-1.36,0.22-2.46 c0.02-1.6,0.44-2.52,0.77-3.43c0.12,1.7,0.75,3.45,0.48,5.14c-0.16,0.72-0.96,0.71-1.32,1.23C33.01,62.02,32.96,63.3,33.5,64.3z" fill="#1B5E20"/>
      <g>
        <radialGradient id="SVGID_3_" cx="37.6058" cy="74.6758" gradientTransform="matrix(0.9323 0.2659 -0.5718 1.0931 45.2551 -14.778)" gradientUnits="userSpaceOnUse" r="4.9076">
          <stop offset="0.4413" stop-color="#A06841"/>
          <stop offset="0.9229" stop-color="#A06841" stop-opacity="0.138"/>
          <stop offset="1" stop-color="#A06841" stop-opacity="0"/>
        </radialGradient>
        <path d="M37.06,82.18c0.38,1.23-4.12,0.33-3.49-1.25c0.44-1.1,0.64-2.25,0.86-3.38 c0.22-1.79-0.31-3.39-1.14-4.92c0.19-0.17,0.41-0.32,0.64-0.43c1.8,3.34,1.86,2.16,3.34-0.45c0.28-0.03,0.56-0.01,0.83,0.06 C36.31,74.65,35.88,78.9,37.06,82.18z" fill="url(#SVGID_3_)"/>
      </g>
    </g>
  </g>
</svg>

<svg viewBox="0 0 128 128" xmlns="http://www.w3.org/2000/svg">
  <defs>
    <linearGradient id="SVGID_1_" gradientUnits="userSpaceOnUse" x1="58.2354" x2="66.5965" y1="84.5602" y2="54.7389">
      <stop offset="0.1167" stop-color="#AFE4FE"/>
      <stop offset="0.6082" stop-color="#84C9ED"/>
      <stop offset="1" stop-color="#5FB2DE"/>
    </linearGradient>
    <radialGradient id="SVGID_2_" cx="91.548052" cy="145.437187" gradientTransform="matrix(0.9882 0.1498 -0.0762 0.5025 0 0)" gradientUnits="userSpaceOnUse" r="35.9625">
      <stop offset="0" stop-color="#D4E157"/>
      <stop offset="1" stop-color="#D4E157" stop-opacity="0"/>
    </radialGradient>
    <radialGradient id="SVGID_3_" cx="72.630078" cy="52.636686" gradientTransform="matrix(0.9323 0.2659 -0.5718 1.0931 0 0)" gradientUnits="userSpaceOnUse" r="4.9076">
      <stop offset="0.4413" stop-color="#A06841"/>
      <stop offset="0.9229" stop-color="#A06841" stop-opacity="0.138"/>
      <stop offset="1" stop-color="#A06841" stop-opacity="0"/>
    </radialGradient>
  </defs>
  <path d="M122.66,124 L5.34,124 C4.6,124 4,123.4 4,122.66 L4,5.34 C4,4.6 4.6,4 5.34,4 L122.66,4 C123.4,4 124,4.6 124,5.34 L124,122.66 C124,123.4 123.4,124 122.66,124 Z" fill="#F2A600"/>
  <path d="M21.26,21.26 L106.73,21.26 L106.73,106.73 L21.26,106.73 L21.26,21.26 Z" fill="#FFFFFF"/>
  <path d="M122.66,4 L5.34,4 C4.97,4 4.64,4.15 4.39,4.39 L21.26,21.26 L106.73,21.26 L123.6,4.39 C123.36,4.15 123.03,4 122.66,4 Z" fill="#D1762C" opacity="0.5"/>
  <path d="M21.26,21.26 L4.39,4.39 C4.15,4.64 4,4.97 4,5.34 L4,122.66 C4,123.03 4.15,123.37 4.39,123.61 L21.26,106.74 L21.26,21.26 Z" fill="#DE7340"/>
  <path d="M114.5,13.5 L114.5,114.5 L13.5,114.5 L13.5,13.5 L114.5,13.5 Z M120.5,7.5 L7.5,7.5 L7.5,120.5 L120.5,120.5 L120.5,7.5 L120.5,7.5 Z" fill="#FFCD40"/>
  <path d="M13.5,114.5 L13.5,13.5 L7.5,7.5 L7.5,120.5 Z" fill="#A65F3E"/>
  <path d="M114.43,13.5 L120.43,7.5 L7.5,7.5 L13.5,13.5 Z" fill="#D1762C"/>
  <path d="M116.5,116.5 L11.5,116.5 L11.5,11.5 L116.5,11.5 L116.5,116.5 Z M13.5,114.5 L114.5,114.5 L114.5,13.5 L13.5,13.5 L13.5,114.5 Z" fill="#D1762C"/>
  <path d="M13.5,114.5 L13.5,13.5 L11.5,11.5 L11.5,116.5 Z" fill="#824A34"/>
  <path d="M114.5,13.5 L116.5,11.5 L11.5,11.5 L13.5,13.5 Z" fill="#A65F3E"/>
  <path d="M27.5,27.5 L100.5,27.5 L100.5,100.5 L27.5,100.5 L27.5,27.5 Z" fill="url(#SVGID_1_)"/>
  <path d="M100.5,62.62 C98.3,63.25 96.37,64.75 95.2,66.72 C95.02,67.03 94.86,67.38 94.54,67.57 C93.51,67.95 92.33,68.03 91.53,68.93 C91.19,66.81 88.62,65.63 86.65,66.29 C84.98,66.71 84.15,68.47 84,70.07 C82.24,69.55 80.3,70.9 80.18,72.73 C80.16,72.9 80.16,73.09 80.07,73.23 C79.63,73.68 78.74,73.63 78.2,74.17 C77.13,75.01 76.63,76.46 75.49,77.2 C81.93,73.57 89.72,74.08 96.74,72.32 C98.13,71.98 99.68,71.55 100.5,70.33 L100.5,62.62 Z" fill="#1B5E20"/>
  <path d="M100.5,94.59 C100.5,94.59 83.91,95.45 65.8,89.87 C47.69,84.3 39.38,78.6 39.38,78.6 C39.38,78.6 51.49,80.95 67.66,78.31 C78.25,76.58 86.1,70.59 100.48,70.31 L100.5,94.59 Z" fill="#689F38"/>
  <path d="M57.5,79.7 C57.64,79.51 57.81,79.33 57.87,79.1 C57.94,78.82 57.83,78.53 57.75,78.26 C57.53,77.47 57.6,76.6 57.93,75.84 C58.1,75.44 58.35,75.08 58.47,74.66 C58.68,73.94 58.48,73.17 58.44,72.42 C58.38,71.4 58.61,70.37 59.09,69.47 C59.16,69.34 59.24,69.21 59.38,69.14 C59.76,68.97 60.08,69.5 60.12,69.91 C60.24,70.95 60.02,72.02 60.24,73.05 C60.55,74.49 61.71,75.74 61.63,77.22 C61.6,77.75 61.41,78.28 61.51,78.79 C61.59,79.18 61.84,79.52 62.05,79.86 C62.59,80.74 62.92,81.73 63.02,82.76 C63.14,83.99 62.77,85.46 61.62,85.89 C60.37,86.37 59.09,85.35 58.11,84.68 C57.21,84.06 56.78,82.78 56.81,81.73 C56.83,81.01 57.06,80.28 57.5,79.7 Z" fill="#2E7D32"/>
  <path d="M86.82,56.92 C82.85,57.21 78.88,57.5 74.9,57.79 C72.93,57.93 70.93,58.08 68.99,57.7 C68.07,57.52 67.17,57.22 66.23,57.17 C64.52,57.08 62.89,57.81 61.23,58.23 C59.41,58.69 57.5,58.78 55.65,58.49 C54.36,58.29 53.04,57.87 52.1,56.96 C51.63,56.51 51.27,55.94 50.77,55.51 C50.16,54.97 49.37,54.67 48.69,54.23 C45.81,52.39 45.13,47.88 47.34,45.27 C47.7,44.85 48.12,44.47 48.44,44.01 C49.06,43.13 49.26,42.03 49.63,41.02 C50.8,37.77 53.85,35.3 57.26,34.74 C60.67,34.18 64.31,35.52 66.61,38.1 C67.36,38.94 68.03,39.93 69.07,40.35 C69.68,40.59 70.36,40.61 71.01,40.69 C74.72,41.16 77.83,44.01 79.41,47.4 C80.11,48.91 80.6,50.58 81.77,51.75 C82.25,52.23 82.83,52.61 83.41,52.97 C86.01,54.59 88.73,56.01 91.54,57.22 C90.82,57.17 90.11,57.13 89.39,57.08" fill="#FFFFFF"/>
  <path d="M74.9,57.79 C72.93,57.93 70.93,58.08 68.99,57.7 C68.07,57.52 67.17,57.22 66.23,57.17 C64.52,57.08 62.89,57.81 61.23,58.23 C59.41,58.69 57.5,58.78 55.65,58.49 C54.36,58.29 53.04,57.87 52.1,56.96 C51.63,56.51 51.27,55.94 50.77,55.51 C50.16,54.97 49.37,54.67 48.69,54.23 C47.65,53.56 47.06,52.63 46.52,51.55 C46.39,51.3 46.39,51.07 46.37,50.79 C47.24,52.13 49.59,53.57 50.53,52.52 C50.84,51.6 49.74,50 49.37,48.73 C48.67,46.33 48.6,43.84 49.46,41.49 C49.56,41.21 49.81,40.3 50.15,39.82 C50.41,41.77 51.09,44.73 52.48,46.12 C53.87,47.51 56.19,48.1 57.86,47.06 C58.91,46.4 59.53,45.25 60.29,44.27 C62.53,41.4 66.44,39.93 70.02,40.62 C68.17,41.7 66.37,43.01 65.28,44.85 C64.19,46.69 63.93,49.16 65.15,50.93 C66.13,52.35 67.91,53.08 69.63,53.05 C70.58,53.03 71.65,52.7 72.04,51.83 C72.26,51.33 72.21,50.73 72.46,50.24 C72.93,49.3 74.31,49.18 75.24,49.66 C76.18,50.15 76.82,51.04 77.54,51.8 C80.24,54.64 84.23,55.78 88.01,56.8 C87.9,56.77 87.67,56.86 87.55,56.88 C87.37,56.91 87.19,56.94 87.01,56.97 C86.73,57.02 86.45,57.09 86.16,57.05 C85.56,56.96 84.95,57.06 84.35,57.1 C82.94,57.2 81.52,57.31 80.11,57.41 C78.38,57.53 76.64,57.66 74.9,57.79 Z" fill="#C9E3E6"/>
  <path d="M100.5,86.03 C65.43,94.2 48.76,74.13 27.5,71.87 L27.5,100.5 L100.5,100.5 L100.5,86.03 Z" fill="#8BC34A"/>
  <path d="M100.5,86.03 C65.43,94.2 48.76,74.13 27.5,71.87 L27.5,100.5 L100.5,100.5 L100.5,86.03 Z" fill="url(#SVGID_2_)"/>
  <path d="M36.32,77.15 C35.28,77.46 34.42,76.66 33.55,76.24 C31.24,74.53 31.24,71.41 31.42,68.8 C31.37,68.18 31.81,67.16 32.54,67.6 C32.24,66.1 32.21,64.55 32.43,63.04 C32.58,61.87 32.99,61.06 33.94,60.46 C34,60.34 33.96,60.2 33.93,60.07 C33.49,58.35 34.29,56.57 34.37,54.79 C34.44,53.4 34.07,51.96 34.55,50.66 C34.75,50.08 35.48,49.76 35.61,50.49 C36.31,53.23 37.52,55.96 37.29,58.84 C37.21,59.23 37.36,59.55 37.68,59.78 C39.72,61.6 38.81,64.77 39.14,67.24 C40.1,69.51 40.08,72.05 38.94,74.26 C38.42,75.48 37.58,76.61 36.32,77.15 Z" fill="#2E7D32"/>
  <path d="M50.15,78.67 C45.73,77.61 45.55,78.78 44.09,78.44 C39.07,76.93 42.16,72.04 43.61,70.85 C43,68.52 44.59,67.57 46.47,65.27 C46.77,60.56 51.29,61.93 50.71,66.06 C51.91,67.62 52.35,69.33 51.96,71.28 C52.08,72.44 53.21,73.2 53.74,74.24 C54.77,76.27 53.04,79.36 50.15,78.67 Z" fill="#689F38"/>
  <path d="M48.47,71.01 C47.94,72.11 46.42,72.34 45.23,72.04 C44.68,71.9 44.1,71.6 43.57,71.8 C42.33,72.26 41.94,73.26 41.9,74.26 C41.9,75.6 43.24,76.65 44.58,76.71 C45.92,76.77 47.18,76.07 48.19,75.21 C48.49,77.01 51.28,76.96 52.5,75.93 C53.66,74.95 53.16,73.38 53.16,73.38 C54.55,74.93 54.48,76.15 54.32,77.44 C54.17,78.68 53.1,80.06 53.74,81.02 C51.52,81.59 50.42,79.68 48.65,78.89 C48,78.71 47.32,78.9 46.66,79.03 C43.94,79.74 40.89,78.14 40.87,75.13 C40.85,73.68 41.65,72.25 42.87,71.46 C43.01,71.37 43.16,71.28 43.22,71.12 C43.28,70.95 43.22,70.77 43.16,70.6 C41.92,67.28 45.16,67.31 46.56,65.16 C47.12,65.78 48.04,66.04 48.84,65.81 C48.21,67.27 46.44,66.57 45.32,67.16 C43.24,68.87 46.66,71.27 48.47,71.01 Z" fill="#2E7D32"/>
  <path d="M33.5,64.3 C34.22,65.61 36.12,66.67 35.69,68.38 C35.04,67.95 34.25,67.4 33.46,67.43 C32.8,68.31 33.06,69.85 33.58,70.76 C36,74 38.61,69.11 38.81,66.82 C41.75,70.26 39.06,79.8 33.74,76.48 C33.03,75.91 30.96,73.62 31.08,69.8 C31.15,67.48 32.08,67.33 32.62,67.4 C31.83,66.18 31.68,64.45 31.99,63.2 C32.26,62.13 32.73,61.27 33.45,60.57 C34.18,59.85 33.65,59.21 33.67,58.11 C33.69,56.51 34.11,55.59 34.44,54.68 C34.56,56.38 35.19,58.13 34.92,59.82 C34.76,60.54 33.96,60.53 33.6,61.05 C33.01,62.02 32.96,63.3 33.5,64.3 Z" fill="#1B5E20"/>
  <path d="M37.06,82.18 C37.44,83.41 32.94,82.51 33.57,80.93 C34.01,79.83 34.21,78.68 34.43,77.55 C34.65,75.76 34.12,74.16 33.29,72.63 C33.48,72.46 33.7,72.31 33.93,72.2 C35.73,75.54 35.79,74.36 37.27,71.75 C37.55,71.72 37.83,71.74 38.1,71.81 C36.31,74.65 35.88,78.9 37.06,82.18 Z" fill="url(#SVGID_3_)"/>
</svg>
